X:1
T:Vikarängslåten (snoa)
R:gånglåt
C:gånglåt av Björk far
Z:2002 Brian Wilson <Brian.Wilson@alumni.brown.edu>
Z:Pers Hans Olsson och Björn Ståbi, Track 1 (GCD-25)
M:2/4
L:1/16
Q:1/4=100
K:A
|:
M:3/4
  "A"E2E2 A2A2 c2Ac |
M:2/4
  "E"efed B2eB | "E"E3G B2Bc | "D"d2de f3f | "E"efed B2AG |
  "A"A2A2 c2Ac | "A/E"efed "(E)"B2eB | "E"E3G BdBG |1 "A"A6 E2 :|2 "A"A4-A Ace |
|: "A"a2e2 cAce | "A"a2e2 cAce | "D"a2ag f2fe | "D"dcde f2e2 |
   "A"cAce a2e2 | "A"cAce a2e2 | "A"cAce a2ag | "D"f2fe d2dc |
   "Bm"B2BA G2GF | "E"E2EG BdBG
|1 "A"A4- AAce :|2 "A"A6 E2 ||
